X:60
T:Money Musk
C:Joseph Allard
M:2/4
L:1/16
Z:abc by Bruce Osborne - bosborne@kos.net
K:G
ge|:dGBG dGce|dGBG ABce|dGBG dGBg|BeAc BGGe|!
dGBG dGBe|dGBG ABce|dGBG dGBg|BeAc BGG2:|!
|:gdeg dgBa|gdca BAAf|gdeg dBca|BgAd BGGf|!
gdeg dgBa|gdca BAAf|gdeg dBca|BgAf gGG2:|!
